X: 131602
T: Mrs.Crehan's
T: Ballymahon
T: R\'il Bhean U\'i Chroidhe\'ain
S: B.Breathnach:"Ceol Rince na hEireann" III/138 
Z: B.Black
L: 1/8
M: 4/4
R: reel
K: G
G2 dG eGdG|G2 dG AdBA|G2 dG eGdG|EGAB cedB|
G2 d2 eGdG|G2 dG AdBA|G2 dG eGdG|EGAB cege ||
d2 (3Bcd Gd (3Bcd|GdBd eAAA|d2 Bd GdBd|ecAc BGGG|
d2 Bd G2 BG|G2 BG AEEE|GABc dedc|BdAc BGGF ||
